svg/user/contacts_line.svg

<?xml version="1.0" encoding="UTF-8"?>
<svg width="24px" height="24px" viewBox="0 0 24 24" version="1.1" xmlns="http://www.w3.org/2000/svg" xmlns:xlink="http://www.w3.org/1999/xlink">
    <title>contacts_line</title>
    <g id="页面-1" stroke="none" stroke-width="1" fill="none" fill-rule="evenodd">
        <g id="User" transform="translate(-528.000000, 0.000000)">
            <g id="contacts_line" transform="translate(528.000000, 0.000000)">
                 <path d="M24,0 L24,24 L0,24 L0,0 L24,0 Z M12.5934901,23.257841 L12.5819402,23.2595131 L12.5108777,23.2950439 L12.4918791,23.2987469 L12.4918791,23.2987469 L12.4767152,23.2950439 L12.4056548,23.2595131 C12.3958229,23.2563662 12.3870493,23.2590235 12.3821421,23.2649074 L12.3780323,23.275831 L12.360941,23.7031097 L12.3658947,23.7234994 L12.3769048,23.7357139 L12.4804777,23.8096931 L12.4953491,23.8136134 L12.4953491,23.8136134 L12.5071152,23.8096931 L12.6106902,23.7357139 L12.6232938,23.7196733 L12.6232938,23.7196733 L12.6266527,23.7031097 L12.609561,23.275831 C12.6075724,23.2657013 12.6010112,23.2592993 12.5934901,23.257841 L12.5934901,23.257841 Z M12.8583906,23.1452862 L12.8445485,23.1473072 L12.6598443,23.2396597 L12.6498822,23.2499052 L12.6498822,23.2499052 L12.6471943,23.2611114 L12.6650943,23.6906389 L12.6699349,23.7034178 L12.6699349,23.7034178 L12.678386,23.7104931 L12.8793402,23.8032389 C12.8914285,23.8068999 12.9022333,23.8029875 12.9078286,23.7952264 L12.9118235,23.7811639 L12.8776777,23.1665331 C12.8752882,23.1545897 12.8674102,23.1470016 12.8583906,23.1452862 L12.8583906,23.1452862 Z M12.1430473,23.1473072 C12.1332178,23.1423925 12.1221763,23.1452606 12.1156365,23.1525954 L12.1099173,23.1665331 L12.0757714,23.7811639 C12.0751323,23.7926639 12.0828099,23.8018602 12.0926481,23.8045676 L12.108256,23.8032389 L12.3092106,23.7104931 L12.3186497,23.7024347 L12.3186497,23.7024347 L12.3225043,23.6906389 L12.340401,23.2611114 L12.337245,23.2485176 L12.337245,23.2485176 L12.3277531,23.2396597 L12.1430473,23.1473072 Z" id="MingCute" fill-rule="nonzero"></path>
                <path d="M15,14 C17.6887316,14 19.8818169,16.1223292 19.9953804,18.7831122 L20,19 L20,21 C20,21.5523 19.5523,22 19,22 C18.48715,22 18.0644908,21.613973 18.0067275,21.1166239 L18,21 L18,19 C18,17.402275 16.7511226,16.096336 15.1762773,16.0050925 L15,16 L7,16 C5.40232321,16 4.09633941,17.2488774 4.00509271,18.8237227 L4,19 L4,21 C4,21.5523 3.55228,22 3,22 C2.48716857,22 2.06449347,21.613973 2.0067278,21.1166239 L2,21 L2,19 C2,16.3112684 4.12231026,14.1181831 6.78311066,14.0046196 L7,14 L15,14 Z M21,13 C21.5523,13 22,13.4477 22,14 C22,14.5523 21.5523,15 21,15 L20,15 C19.4477,15 19,14.5523 19,14 C19,13.4477 19.4477,13 20,13 L21,13 Z M11,2 C13.7614,2 16,4.23858 16,7 C16,9.76142 13.7614,12 11,12 C8.23858,12 6,9.76142 6,7 C6,4.23858 8.23858,2 11,2 Z M21,10 C21.5523,10 22,10.4477 22,11 C22,11.5523 21.5523,12 21,12 L19,12 C18.4477,12 18,11.5523 18,11 C18,10.4477 18.4477,10 19,10 L21,10 Z M11,4 C9.34315,4 8,5.34315 8,7 C8,8.65685 9.34315,10 11,10 C12.6569,10 14,8.65685 14,7 C14,5.34315 12.6569,4 11,4 Z M21,7 C21.5523,7 22,7.44772 22,8 C22,8.51283143 21.613973,8.93550653 21.1166239,8.9932722 L21,9 L18,9 C17.4477,9 17,8.55228 17,8 C17,7.48716857 17.386027,7.06449347 17.8833761,7.0067278 L18,7 L21,7 Z" id="形状" fill="#09244B"></path>
            </g>
        </g>
    </g>
</svg>

<svg xmlns="http://www.w3.org/2000/svg" width="24" height="24"><g fill="none" fill-rule="evenodd"><path d="M24 0v24H0V0h24ZM12.593 23.258l-.011.002-.071.035-.02.004-.014-.004-.071-.035c-.01-.004-.019-.001-.024.005l-.004.01-.017.428.005.02.01.013.104.074.015.004.012-.004.104-.074.012-.016.004-.017-.017-.427c-.002-.01-.009-.017-.017-.018Zm.265-.113-.013.002-.185.093-.01.01-.003.011.018.43.005.012.008.007.201.093c.012.004.023 0 .029-.008l.004-.014-.034-.614c-.003-.012-.01-.02-.02-.022Zm-.715.002a.023.023 0 0 0-.027.006l-.006.014-.034.614c0 .012.007.02.017.024l.015-.002.201-.093.01-.008.004-.011.017-.43-.003-.012-.01-.01-.184-.092Z"/><path fill="#09244B" d="M15 14a5 5 0 0 1 4.995 4.783L20 19v2a1 1 0 0 1-1.993.117L18 21v-2a3 3 0 0 0-2.824-2.995L15 16H7a3 3 0 0 0-2.995 2.824L4 19v2a1 1 0 0 1-1.993.117L2 21v-2a5 5 0 0 1 4.783-4.995L7 14h8Zm6-1a1 1 0 1 1 0 2h-1a1 1 0 1 1 0-2h1ZM11 2a5 5 0 1 1 0 10 5 5 0 0 1 0-10Zm10 8a1 1 0 1 1 0 2h-2a1 1 0 1 1 0-2h2ZM11 4a3 3 0 1 0 0 6 3 3 0 0 0 0-6Zm10 3a1 1 0 0 1 .117 1.993L21 9h-3a1 1 0 0 1-.117-1.993L18 7h3Z"/></g></svg>
